panel/22/system-devices-panel.svg

<?xml version="1.0" encoding="UTF-8" standalone="no"?>
<!-- Created with Inkscape (http://www.inkscape.org/) -->

<svg
   xmlns:dc="http://purl.org/dc/elements/1.1/"
   xmlns:cc="http://creativecommons.org/ns#"
   xmlns:rdf="http://www.w3.org/1999/02/22-rdf-syntax-ns#"
   xmlns:svg="http://www.w3.org/2000/svg"
   xmlns="http://www.w3.org/2000/svg"
   xmlns:xlink="http://www.w3.org/1999/xlink"
   xmlns:inkscape="http://www.inkscape.org/namespaces/inkscape"
   version="1.0"
   width="22"
   height="22"
   id="svg2403">
  <metadata
     id="metadata15">
    <rdf:RDF>
      <cc:Work
         rdf:about="">
        <dc:format>image/svg+xml</dc:format>
        <dc:type
           rdf:resource="http://purl.org/dc/dcmitype/StillImage" />
      </cc:Work>
    </rdf:RDF>
  </metadata>
  <defs
     id="defs2405">
    <linearGradient
       x1="11.644068"
       y1="2.4988678"
       x2="11.644068"
       y2="15.00281"
       id="linearGradient2392"
       xlink:href="#linearGradient3678"
       gradientUnits="userSpaceOnUse"
       gradientTransform="translate(-17.090416,3)" />
    <linearGradient
       x1="8.4964771"
       y1="-0.061573759"
       x2="8.4964771"
       y2="8.083209"
       id="linearGradient2395"
       xlink:href="#linearGradient3678"
       gradientUnits="userSpaceOnUse"
       gradientTransform="matrix(1.0526316,0,0,0.9843625,2.5789474,3.0602428)" />
    <linearGradient
       id="linearGradient3678">
      <stop
         id="stop3680"
         style="stop-color:#ffffff;stop-opacity:1"
         offset="0" />
      <stop
         id="stop3682"
         style="stop-color:#e6e6e6;stop-opacity:1"
         offset="1" />
    </linearGradient>
    <linearGradient
       x1="159.68553"
       y1="14.403693"
       x2="159.68553"
       y2="38.279892"
       id="linearGradient2388"
       xlink:href="#linearGradient3678"
       gradientUnits="userSpaceOnUse"
       gradientTransform="matrix(-0.4100229,0,0,0.5447147,78.029995,-3.8459034)" />
  </defs>
  <path
     d="m 11,4 c -0.554,0 -1,0.446 -1,1 l 0,4 c 0,0.554 0.446,1 1,1 0.554,0 1,-0.446 1,-1 L 12,5 C 12,4.446 11.554,4 11,4 z M 8,6 C 7.766156,6 7.5442694,6.0840437 7.375,6.21875 7.2121185,6.3560555 7.1601262,6.4051625 7.09375,6.46875 5.8149714,7.5653471 5,9.1808001 5,11 c 0,3.313708 2.6862915,6 6,6 3.313709,0 6,-2.686292 6,-6 C 17,9.1808001 16.185029,7.5653471 14.90625,6.46875 14.839874,6.4051625 14.787882,6.3560555 14.625,6.21875 14.455731,6.0840438 14.233844,6 14,6 c -0.552285,0 -1,0.4477153 -1,1 0,0.3110369 0.148286,0.5708515 0.375,0.75 0.04031,0.037777 0.05344,0.059382 0.125,0.125 C 14.424101,8.604048 15,9.7284785 15,11 15,13.209139 13.209139,15 11,15 8.790861,15 7,13.209139 7,11 7,9.7284785 7.5758988,8.604048 8.5,7.875 8.5715552,7.8093817 8.5846869,7.7877767 8.625,7.75 8.8517139,7.5708515 9,7.3110369 9,7 9,6.4477153 8.5522847,6 8,6 z"
     inkscape:connector-curvature="0"
     id="path2991"
     style="color:#000000;fill:#ffffff;fill-opacity:1;fill-rule:nonzero;stroke:none;stroke-width:1;marker:none;visibility:visible;display:inline;overflow:visible;enable-background:accumulate" />
</svg>

<?xml version="1.0" encoding="UTF-8" standalone="no"?>
<!-- Created with Inkscape (http://www.inkscape.org/) -->

<svg
   xmlns:dc="http://purl.org/dc/elements/1.1/"
   xmlns:cc="http://creativecommons.org/ns#"
   xmlns:rdf="http://www.w3.org/1999/02/22-rdf-syntax-ns#"
   xmlns:svg="http://www.w3.org/2000/svg"
   xmlns="http://www.w3.org/2000/svg"
   xmlns:xlink="http://www.w3.org/1999/xlink"
   xmlns:sodipodi="http://sodipodi.sourceforge.net/DTD/sodipodi-0.dtd"
   xmlns:inkscape="http://www.inkscape.org/namespaces/inkscape"
   version="1.0"
   width="22"
   height="22"
   id="svg2403"
   inkscape:version="0.48.4 r9939"
   sodipodi:docname="system-devices-panel.svg">
  <sodipodi:namedview
     pagecolor="#5f5f5f"
     bordercolor="#666666"
     borderopacity="1"
     objecttolerance="10"
     gridtolerance="10"
     guidetolerance="10"
     inkscape:pageopacity="0"
     inkscape:pageshadow="2"
     inkscape:window-width="1280"
     inkscape:window-height="747"
     id="namedview14"
     showgrid="false"
     inkscape:zoom="1"
     inkscape:cx="11"
     inkscape:cy="11"
     inkscape:window-x="0"
     inkscape:window-y="28"
     inkscape:window-maximized="1"
     inkscape:current-layer="svg2403"
     showborder="false">
    <inkscape:grid
       type="xygrid"
       id="grid2989"
       empspacing="5"
       visible="true"
       enabled="true"
       snapvisiblegridlinesonly="true" />
  </sodipodi:namedview>
  <metadata
     id="metadata15">
    <rdf:RDF>
      <cc:Work
         rdf:about="">
        <dc:format>image/svg+xml</dc:format>
        <dc:type
           rdf:resource="http://purl.org/dc/dcmitype/StillImage" />
      </cc:Work>
    </rdf:RDF>
  </metadata>
  <defs
     id="defs2405">
    <linearGradient
       x1="11.644068"
       y1="2.4988678"
       x2="11.644068"
       y2="15.00281"
       id="linearGradient2392"
       xlink:href="#linearGradient3678"
       gradientUnits="userSpaceOnUse"
       gradientTransform="translate(-17.090416,3)" />
    <linearGradient
       x1="8.4964771"
       y1="-0.061573759"
       x2="8.4964771"
       y2="8.083209"
       id="linearGradient2395"
       xlink:href="#linearGradient3678"
       gradientUnits="userSpaceOnUse"
       gradientTransform="matrix(1.0526316,0,0,0.9843625,2.5789474,3.0602428)" />
    <linearGradient
       id="linearGradient3678">
      <stop
         id="stop3680"
         style="stop-color:#ffffff;stop-opacity:1"
         offset="0" />
      <stop
         id="stop3682"
         style="stop-color:#e6e6e6;stop-opacity:1"
         offset="1" />
    </linearGradient>
    <linearGradient
       x1="159.68553"
       y1="14.403693"
       x2="159.68553"
       y2="38.279892"
       id="linearGradient2388"
       xlink:href="#linearGradient3678"
       gradientUnits="userSpaceOnUse"
       gradientTransform="matrix(-0.4100229,0,0,0.5447147,78.029995,-3.8459034)" />
  </defs>
  <path
     style="color:#000000;fill:#ffffff;fill-opacity:1;fill-rule:nonzero;stroke:none;stroke-width:1;marker:none;visibility:visible;display:inline;overflow:visible;enable-background:accumulate"
     d="M 11 4 C 10.446 4 10 4.446 10 5 L 10 9 C 10 9.554 10.446 10 11 10 C 11.554 10 12 9.554 12 9 L 12 5 C 12 4.446 11.554 4 11 4 z M 8 6 C 7.766156 6 7.5442694 6.0840437 7.375 6.21875 C 7.2121185 6.3560555 7.1601262 6.4051625 7.09375 6.46875 C 5.8149714 7.5653471 5 9.1808001 5 11 C 5 14.313708 7.6862915 17 11 17 C 14.313709 17 17 14.313708 17 11 C 17 9.1808001 16.185029 7.5653471 14.90625 6.46875 C 14.839874 6.4051625 14.787882 6.3560555 14.625 6.21875 C 14.455731 6.0840438 14.233844 6 14 6 C 13.447715 6 13 6.4477153 13 7 C 13 7.3110369 13.148286 7.5708515 13.375 7.75 C 13.415313 7.7877767 13.428445 7.8093817 13.5 7.875 C 14.424101 8.604048 15 9.7284785 15 11 C 15 13.209139 13.209139 15 11 15 C 8.790861 15 7 13.209139 7 11 C 7 9.7284785 7.5758988 8.604048 8.5 7.875 C 8.5715552 7.8093817 8.5846869 7.7877767 8.625 7.75 C 8.8517139 7.5708515 9 7.3110369 9 7 C 9 6.4477153 8.5522847 6 8 6 z "
     id="path2991" />
</svg>
